media/icon/star.svg

<svg width="105" height="105" viewBox="0 0 105 105" fill="none" xmlns="http://www.w3.org/2000/svg">
<path d="M10.2398 43.0189C9.92193 42.7225 9.69478 42.3402 9.58522 41.9174C9.47567 41.4945 9.4883 41.0488 9.62161 40.633C9.75493 40.2172 10.0033 39.8487 10.3375 39.5712C10.6716 39.2937 11.0773 39.1187 11.5068 39.0671L38.6746 35.8106C39.0595 35.7652 39.4264 35.6207 39.7401 35.3909C40.0539 35.161 40.304 34.8536 40.4665 34.498L51.9236 9.38807C52.1047 8.99138 52.3944 8.65542 52.7585 8.41994C53.1226 8.18447 53.5457 8.05933 53.978 8.05933C54.4102 8.05933 54.8334 8.18447 55.1974 8.41994C55.5615 8.65542 55.8512 8.99138 56.0323 9.38807L67.4895 34.498C67.6515 34.8529 67.9009 35.16 68.2139 35.3898C68.5268 35.6196 68.8927 35.7645 69.2768 35.8106L96.4446 39.0671C96.8741 39.1187 97.2799 39.2937 97.614 39.5712C97.9481 39.8487 98.1965 40.2172 98.3298 40.633C98.4631 41.0488 98.4757 41.4945 98.3662 41.9174C98.2566 42.3402 98.0295 42.7225 97.7116 43.0189L77.6299 61.7941C77.3469 62.0599 77.136 62.3944 77.0172 62.7659C76.8984 63.1374 76.8757 63.5334 76.9511 63.9163L82.277 91.0387C82.3618 91.4675 82.3231 91.912 82.1656 92.3193C82.0081 92.7267 81.7383 93.0798 81.3882 93.3369C81.0382 93.5939 80.6225 93.7442 80.1906 93.7697C79.7586 93.7953 79.3285 93.6951 78.9512 93.4811L55.0821 79.9748C54.7446 79.7841 54.3645 79.684 53.978 79.684C53.5914 79.684 53.2113 79.7841 52.8739 79.9748L29.0002 93.4765C28.6233 93.69 28.1937 93.79 27.7622 93.7646C27.3308 93.7391 26.9157 93.5893 26.5658 93.3329C26.216 93.0765 25.9461 92.7242 25.7881 92.3176C25.6302 91.911 25.5907 91.4672 25.6744 91.0387L31.0048 63.9163C31.0803 63.5334 31.0575 63.1374 30.9387 62.7659C30.8199 62.3944 30.609 62.0599 30.326 61.7941L10.2398 43.0189Z" stroke="white" stroke-width="4" stroke-linecap="round" stroke-linejoin="round"/>
</svg>

<svg xmlns="http://www.w3.org/2000/svg" width="105" height="105" fill="none"><path stroke="#fff" stroke-linecap="round" stroke-linejoin="round" stroke-width="4" d="M10.24 43.019a2.31 2.31 0 0 1-.618-2.386c.133-.416.381-.784.715-1.062a2.25 2.25 0 0 1 1.17-.504l27.168-3.256c.385-.046.751-.19 1.065-.42s.564-.537.727-.893l11.457-25.11a2.3 2.3 0 0 1 .834-.968 2.25 2.25 0 0 1 2.44 0c.364.235.653.571.834.968l11.458 25.11c.162.355.41.662.724.892.313.23.679.374 1.063.42l27.168 3.257c.43.052.835.227 1.169.504.334.278.582.646.716 1.062a2.31 2.31 0 0 1-.618 2.386L77.63 61.794a2.312 2.312 0 0 0-.679 2.122l5.326 27.123a2.3 2.3 0 0 1-.111 1.28c-.158.408-.428.76-.778 1.018a2.25 2.25 0 0 1-2.437.144L55.082 79.975a2.24 2.24 0 0 0-2.208 0L29 93.477a2.24 2.24 0 0 1-2.434-.144 2.3 2.3 0 0 1-.778-1.015 2.3 2.3 0 0 1-.114-1.28l5.33-27.122a2.31 2.31 0 0 0-.678-2.122z"/></svg>
